src/pos-icons/tree-outline.svg

<svg height="24" viewBox="0 0 24 24" width="24" xmlns="http://www.w3.org/2000/svg"><path d="m10.5 3c-2.5 0-4.5 2-4.5 4.5 0 .61.13 1.21.37 1.77-.87.85-1.37 2.01-1.37 3.23 0 2.5 2 4.5 4.5 4.5.5 0 1-.11 1.5-.28v4.28h2v-5.23c.5.14 1 .23 1.5.23a5.5 5.5 0 0 0 5.5-5.5 5.5 5.5 0 0 0 -5.5-5.5c-.09 0-.17 0-.26 0-.83-1.24-2.24-2-3.74-2m0 2c1.32 0 2.41 1.03 2.5 2.35.46-.23 1-.35 1.5-.35a3.5 3.5 0 0 1 3.5 3.5 3.5 3.5 0 0 1 -3.5 3.5c-.96 0-1.87-.39-2.54-1.09-.2 1.21-1.24 2.09-2.46 2.09a2.5 2.5 0 0 1 -2.5-2.5c0-1.38.8-1.96 2-2.71-.8-1.03-1-1.63-1-2.29a2.5 2.5 0 0 1 2.5-2.5z"/></svg>

<?xml version="1.0" encoding="UTF-8"?><!DOCTYPE svg PUBLIC "-//W3C//DTD SVG 1.1//EN" "http://www.w3.org/Graphics/SVG/1.1/DTD/svg11.dtd"><svg xmlns="http://www.w3.org/2000/svg" xmlns:xlink="http://www.w3.org/1999/xlink" version="1.1" id="mdi-tree-outline" width="24" height="24" viewBox="0 0 24 24"><path d="M10.5,3C8,3 6,5 6,7.5C6,8.11 6.13,8.71 6.37,9.27C5.5,10.12 5,11.28 5,12.5C5,15 7,17 9.5,17C10,17 10.5,16.89 11,16.72V21H13V15.77C13.5,15.91 14,16 14.5,16A5.5,5.5 0 0,0 20,10.5A5.5,5.5 0 0,0 14.5,5C14.41,5 14.33,5 14.24,5C13.41,3.76 12,3 10.5,3M10.5,5C11.82,5 12.91,6.03 13,7.35C13.46,7.12 14,7 14.5,7A3.5,3.5 0 0,1 18,10.5A3.5,3.5 0 0,1 14.5,14C13.54,14 12.63,13.61 11.96,12.91C11.76,14.12 10.72,15 9.5,15A2.5,2.5 0 0,1 7,12.5C7,11.12 7.8,10.54 9,9.79C8.2,8.76 8,8.16 8,7.5A2.5,2.5 0 0,1 10.5,5Z" /></svg>
